X: 9969
T: Devil's Chimney, The
R: slip jig
M: 9/8
K: Dmajor
|:F2A A2F A2d|B2G G2F G2G|E3 e2d c2B|B2c A2G F2E|
F2A A2F A2d|B2G G2F G3|g2e e2d c2A|1 Bcd e2c d2A:|2 Bcd e2c d2g||
|:a3 d2f e2d|B3 e3 e2f|g2e e2d c2B|B2c A2G FED|
a2a d2f e2d|B3 e3 e2f|g2e e2d c2A|1 Bcd e2c d2g:|2 Bcd e2c d3||
|:Bcd g2a g2d|A3 f2g f2d|e2A A2c B2A|E2F E2D EFA|
Bcd g2a g2d|A3 f2d e2f|g2e e2d c2A|1 Bcd e2c d3:|2 B2c B2A F2E||

